X:1
T:Ecoute, coute - T40
C:M. Wackenheim
M:C
K:Cm
"Dom"C2CC "Sol"D2D2|"Dom"E2E2 "Sol"D2D2|"Dom"C2CC "Lab"E2E2|"Mib"G4 "Sol"z2z2|"Mib"E2EE "Sib"F2F2|\
"Mib"G2G2 "Sib"F2F2|"Mib"E2EE|"Dom"G2G2|"Solm"B4 "Sib"z2G2 |
"Do"c4 c2B2|"Fam"A4 A2F2|"Sib"B2Bc B2A2|"Mib"G6 E2|"Lab"A2A2 A2G2|"Rem5dim"F4 F2D2|\
"Sol"G2F2 E2F2|"Dom"G6 G2 |
"Do"c4 c2B2|"Fam"A4 A2F2|"Sib"B2Bc B2A2|"Mib"G6 E2|"Lab"A2A2 A2G2|"Rem5dim"F4 F2D2|\
"Sol"G2F2 E2D2|"Dom"C8 ||
